packages/kaspersky-hexa-ui-icons/src/iconsSVGs/24/WorkAddressSolid.svg

<svg width="24" height="24" viewBox="0 0 24 24" fill="none" xmlns="http://www.w3.org/2000/svg">
<path fill-rule="evenodd" clip-rule="evenodd" d="M6 4C6 2.89543 6.89543 2 8 2H14C15.1046 2 16 2.89543 16 4V5.99994H18C19.1046 5.99994 20 6.89537 20 7.99994V8.32112C19.3372 8.11427 18.6304 8.00244 17.8932 8.00244C15.0616 8.00244 12.6777 9.65256 11.5163 12H2V7.99994C2 6.89537 2.89543 5.99994 4 5.99994H6V4ZM14 4V5.99994H8V4H14Z" fill="black"/>
<path d="M10.7573 15.2503C10.7573 14.8253 10.7939 14.4074 10.8642 14H8V15C8 15.5523 7.55228 16 7 16C6.44772 16 6 15.5523 6 15V14H2V17.9999C2 19.1045 2.89543 19.9999 4 19.9999H12.3252C11.5021 18.7198 10.7573 17.074 10.7573 15.2503Z" fill="black"/>
<path fill-rule="evenodd" clip-rule="evenodd" d="M17.0678 22.3416C16.9455 22.2377 16.7736 22.0877 16.5685 21.8983C16.1597 21.5207 15.6124 20.9803 15.0622 20.3309C14.0057 19.0836 12.7573 17.2255 12.7573 15.2503C12.7573 12.3773 15.0317 10.0024 17.8932 10.0024C20.7547 10.0024 23.0291 12.3773 23.0291 15.2503C23.0291 17.2255 21.7807 19.0836 20.7242 20.3309C20.1741 20.9803 19.6268 21.5207 19.2179 21.8983C19.0128 22.0877 18.8409 22.2377 18.7186 22.3416C18.4784 22.5459 18.2246 22.7271 17.8932 22.7271C17.6166 22.7271 17.3586 22.5888 17.0678 22.3416ZM19.0112 15.2468C19.0112 15.8643 18.5106 16.3648 17.8932 16.3648C17.2757 16.3648 16.7751 15.8643 16.7751 15.2468C16.7751 14.6293 17.2757 14.1288 17.8932 14.1288C18.5106 14.1288 19.0112 14.6293 19.0112 15.2468Z" fill="black"/>
</svg>

<svg xmlns="http://www.w3.org/2000/svg" width="24" height="24" fill="none" viewBox="0 0 24 24"><path fill="#000" fill-rule="evenodd" d="M8 2c-1.1046 0-2 .8954-2 2v2H4c-1.1046 0-2 .8954-2 2v4h9.5163c1.1614-2.3474 3.5453-3.9976 6.3769-3.9976.7372 0 1.444.1119 2.1068.3187V8c0-1.1045-.8954-2-2-2h-2V4c0-1.1046-.8954-2-2-2zm6 4V4H8v2zm3.0678 16.3416a16 16 0 0 1-.4993-.4433c-.4088-.3776-.9561-.918-1.5063-1.5674-1.0565-1.2473-2.3049-3.1054-2.3049-5.0806 0-2.873 2.2744-5.2479 5.1359-5.2479s5.1359 2.3749 5.1359 5.2479c0 1.9752-1.2484 3.8333-2.3049 5.0806-.5501.6494-1.0974 1.1898-1.5063 1.5674a16 16 0 0 1-.4993.4433c-.2402.2043-.494.3855-.8254.3855-.2766 0-.5346-.1383-.8254-.3855m-6.3105-7.0913c0-.425.0366-.8429.1069-1.2503H8v1c0 .5523-.4477 1-1 1s-1-.4477-1-1v-1H2v3.9999c0 1.1046.8954 2 2 2h8.3252c-.8231-1.2801-1.5679-2.9259-1.5679-4.7496m8.2539-.0035c0 .6175-.5006 1.118-1.118 1.118s-1.1181-.5005-1.1181-1.118.5006-1.118 1.1181-1.118c.6174 0 1.118.5005 1.118 1.118"/></svg>
